icons/system-close.svg

<svg viewBox="0 0 16 16"
     fill="currentColor"
     xmlns="http://www.w3.org/2000/svg">
    <g id="close"
       filter="url(#filter0_d_0_39)">
        <path id="Shape"
              d="M4.49999 2.15C4.97999 1.97 5.92999 2.08 6.17999 2.62C6.42999 3.16 6.57999 3.86 6.58999 3.69C6.57086 3.1733 6.61452 2.65618 6.71999 2.15C6.83114 1.82581 7.08581 1.57115 7.40999 1.46C7.70731 1.36597 8.02298 1.34538 8.32999 1.4C8.64041 1.4639 8.91534 1.64243 9.09999 1.9C9.33394 2.48313 9.46587 3.10215 9.48999 3.73C9.51487 3.19425 9.60555 2.6636 9.75999 2.15C9.9271 1.91455 10.1711 1.74479 10.45 1.67C10.7806 1.60956 11.1194 1.60956 11.45 1.67C11.7214 1.76006 11.9587 1.93106 12.13 2.16C12.3424 2.69015 12.4706 3.25025 12.51 3.82C12.51 3.96 12.58 3.43 12.8 3.08C12.9767 2.55533 13.5453 2.27327 14.07 2.45C14.5947 2.62673 14.8767 3.19533 14.7 3.72C14.7 4.37 14.7 4.34 14.7 4.78C14.7 5.22 14.7 5.61 14.7 5.98C14.664 6.56522 14.5837 7.14688 14.46 7.72C14.2864 8.22731 14.0442 8.70845 13.74 9.15C13.2546 9.69006 12.8534 10.3003 12.55 10.96C12.476 11.288 12.4424 11.6238 12.45 11.96C12.449 12.2706 12.4893 12.58 12.57 12.88C12.1612 12.9237 11.7488 12.9237 11.34 12.88C10.95 12.82 10.47 12.04 10.34 11.8C10.2757 11.6711 10.144 11.5897 10 11.5897C9.85597 11.5897 9.72432 11.6711 9.65999 11.8C9.43999 12.18 8.94999 12.87 8.65999 12.91C7.98999 12.99 6.59999 12.91 5.51999 12.91C5.51999 12.91 5.70999 11.91 5.28999 11.55C4.86999 11.19 4.45999 10.77 4.14999 10.49L3.31999 9.57C2.73469 9.02668 2.30638 8.33586 2.07999 7.57C1.86999 6.63 1.88999 6.18 2.07999 5.8C2.27378 5.4862 2.57639 5.2548 2.92999 5.15C3.22376 5.09671 3.52618 5.11733 3.80999 5.21C4.00626 5.29217 4.17589 5.42717 4.29999 5.6C4.52999 5.91 4.60999 6.06 4.50999 5.72C4.40999 5.38 4.18999 5.13 4.07999 4.72C3.86585 4.2358 3.73728 3.71813 3.69999 3.19C3.74098 2.71617 4.07182 2.31756 4.52999 2.19"
              fill="white" />
        <path id="Shape_2"
              fill-rule="evenodd"
              clip-rule="evenodd"
              d="M4.49999 2.15C4.97999 1.97 5.92999 2.08 6.17999 2.62C6.42999 3.16 6.57999 3.86 6.58999 3.69C6.57086 3.1733 6.61452 2.65618 6.71999 2.15C6.83114 1.82581 7.08581 1.57115 7.40999 1.46C7.70731 1.36597 8.02298 1.34538 8.32999 1.4C8.64041 1.4639 8.91534 1.64243 9.09999 1.9C9.33394 2.48313 9.46587 3.10215 9.48999 3.73C9.51487 3.19425 9.60555 2.6636 9.75999 2.15C9.9271 1.91455 10.1711 1.74479 10.45 1.67C10.7806 1.60956 11.1194 1.60956 11.45 1.67C11.7214 1.76006 11.9587 1.93106 12.13 2.16C12.3424 2.69015 12.4706 3.25025 12.51 3.82C12.51 3.96 12.58 3.43 12.8 3.08C12.9767 2.55533 13.5453 2.27327 14.07 2.45C14.5947 2.62673 14.8767 3.19533 14.7 3.72C14.7 4.37 14.7 4.34 14.7 4.78C14.7 5.22 14.7 5.61 14.7 5.98C14.664 6.56522 14.5837 7.14688 14.46 7.72C14.2864 8.22731 14.0442 8.70845 13.74 9.15C13.2546 9.69006 12.8534 10.3003 12.55 10.96C12.476 11.288 12.4424 11.6238 12.45 11.96C12.449 12.2706 12.4893 12.58 12.57 12.88C12.1612 12.9237 11.7488 12.9237 11.34 12.88C10.95 12.82 10.47 12.04 10.34 11.8C10.2757 11.6711 10.144 11.5897 10 11.5897C9.85597 11.5897 9.72432 11.6711 9.65999 11.8C9.43999 12.18 8.94999 12.87 8.65999 12.91C7.98999 12.99 6.59999 12.91 5.51999 12.91C5.51999 12.91 5.70999 11.91 5.28999 11.55C4.86999 11.19 4.45999 10.77 4.14999 10.49L3.31999 9.57C2.73469 9.02668 2.30638 8.33586 2.07999 7.57C1.86999 6.63 1.88999 6.18 2.07999 5.8C2.27378 5.4862 2.57639 5.2548 2.92999 5.15C3.22376 5.09671 3.52618 5.11733 3.80999 5.21C4.00626 5.29217 4.17589 5.42717 4.29999 5.6C4.52999 5.91 4.60999 6.06 4.50999 5.72C4.40999 5.38 4.18999 5.13 4.07999 4.72C3.86585 4.2358 3.73728 3.71813 3.69999 3.19C3.72044 2.70924 4.04056 2.29308 4.49999 2.15Z"
              stroke="#222124"
              stroke-width="0.75"
              stroke-linejoin="round" />
        <path id="Shape_3"
              d="M12.25 9.82589V6.37411C12.25 6.16749 12.0821 6 11.875 6C11.6679 6 11.5 6.16749 11.5 6.37411V9.82589C11.5 10.0325 11.6679 10.2 11.875 10.2C12.0821 10.2 12.25 10.0325 12.25 9.82589Z"
              fill="#222124" />
        <path id="Shape_4"
              d="M10.27 9.82463L10.25 6.37107C10.2488 6.16495 10.0799 5.99882 9.87284 6.00001C9.66574 6.00119 9.49881 6.16925 9.50001 6.37537L9.52001 9.82893C9.5212 10.035 9.69006 10.2012 9.89716 10.2C10.1043 10.1988 10.2712 10.0307 10.27 9.82463Z"
              fill="#222124" />
        <path id="Shape_5"
              d="M7.50001 6.37991L7.52001 9.82451C7.52122 10.0331 7.69009 10.2012 7.89719 10.2C8.1043 10.1988 8.2712 10.0287 8.26999 9.82009L8.24999 6.37549C8.24878 6.1669 8.07991 5.99879 7.87281 6.00001C7.6657 6.00123 7.4988 6.17131 7.50001 6.37991Z"
              fill="#222124" />
    </g>
    <defs>
        <filter id="filter0_d_0_39"
                x="0.754901"
                y="0.995167"
                width="15.1729"
                height="14.1254"
                filterUnits="userSpaceOnUse"
                color-interpolation-filters="sRGB">
            <feFlood flood-opacity="0"
                     result="BackgroundImageFix" />
            <feColorMatrix in="SourceAlpha"
                           type="matrix"
                           values="0 0 0 0 0 0 0 0 0 0 0 0 0 0 0 0 0 0 127 0"
                           result="hardAlpha" />
            <feOffset dy="1" />
            <feGaussianBlur stdDeviation="0.4" />
            <feColorMatrix type="matrix"
                           values="0 0 0 0 0 0 0 0 0 0 0 0 0 0 0 0 0 0 0.5 0" />
            <feBlend mode="normal"
                     in2="BackgroundImageFix"
                     result="effect1_dropShadow_0_39" />
            <feBlend mode="normal"
                     in="SourceGraphic"
                     in2="effect1_dropShadow_0_39"
                     result="shape" />
        </filter>
    </defs>
</svg>

<svg xmlns="http://www.w3.org/2000/svg" fill="currentColor" viewBox="0 0 16 16"><g filter="url(#a)"><path fill="#fff" d="M4.5 2.15c.48-.18 1.43-.07 1.68.47s.4 1.24.41 1.07a6.4 6.4 0 0 1 .13-1.54 1.11 1.11 0 0 1 .69-.69 1.9 1.9 0 0 1 .92-.06c.31.064.585.242.77.5a5.5 5.5 0 0 1 .39 1.83 6.5 6.5 0 0 1 .27-1.58 1.24 1.24 0 0 1 .69-.48c.33-.06.67-.06 1 0a1.4 1.4 0 0 1 .68.49c.212.53.34 1.09.38 1.66 0 .14.07-.39.29-.74a1.002 1.002 0 1 1 1.9.64v2.26a11.6 11.6 0 0 1-.24 1.74 5.9 5.9 0 0 1-.72 1.43 7.2 7.2 0 0 0-1.19 1.81 4 4 0 0 0-.1 1c-.001.31.04.62.12.92a5.8 5.8 0 0 1-1.23 0c-.39-.06-.87-.84-1-1.08a.38.38 0 0 0-.68 0c-.22.38-.71 1.07-1 1.11-.67.08-2.06 0-3.14 0 0 0 .19-1-.23-1.36s-.83-.78-1.14-1.06l-.83-.92a4.45 4.45 0 0 1-1.24-2c-.21-.94-.19-1.39 0-1.77a1.5 1.5 0 0 1 .85-.65 1.8 1.8 0 0 1 .88.06c.196.082.366.217.49.39.23.31.31.46.21.12s-.32-.59-.43-1a4.6 4.6 0 0 1-.38-1.53 1.14 1.14 0 0 1 .83-1"/><path fill-rule="evenodd" stroke="#222124" stroke-linejoin="round" stroke-width=".75" d="M4.5 2.15c.48-.18 1.43-.07 1.68.47s.4 1.24.41 1.07a6.4 6.4 0 0 1 .13-1.54 1.11 1.11 0 0 1 .69-.69 1.9 1.9 0 0 1 .92-.06c.31.064.585.242.77.5a5.5 5.5 0 0 1 .39 1.83 6.5 6.5 0 0 1 .27-1.58 1.24 1.24 0 0 1 .69-.48c.33-.06.67-.06 1 0a1.4 1.4 0 0 1 .68.49c.212.53.34 1.09.38 1.66 0 .14.07-.39.29-.74a1.002 1.002 0 1 1 1.9.64v2.26a11.6 11.6 0 0 1-.24 1.74 5.9 5.9 0 0 1-.72 1.43 7.2 7.2 0 0 0-1.19 1.81 4 4 0 0 0-.1 1c-.001.31.04.62.12.92a5.8 5.8 0 0 1-1.23 0c-.39-.06-.87-.84-1-1.08a.38.38 0 0 0-.68 0c-.22.38-.71 1.07-1 1.11-.67.08-2.06 0-3.14 0 0 0 .19-1-.23-1.36s-.83-.78-1.14-1.06l-.83-.92a4.45 4.45 0 0 1-1.24-2c-.21-.94-.19-1.39 0-1.77a1.5 1.5 0 0 1 .85-.65 1.8 1.8 0 0 1 .88.06c.196.082.366.217.49.39.23.31.31.46.21.12s-.32-.59-.43-1a4.6 4.6 0 0 1-.38-1.53c.02-.48.34-.897.8-1.04Z" clip-rule="evenodd"/><path fill="#222124" d="M12.25 9.826V6.374a.375.375 0 0 0-.75 0v3.452a.375.375 0 0 0 .75 0M10.27 9.825l-.02-3.454a.374.374 0 0 0-.75.004l.02 3.454a.374.374 0 0 0 .75-.004M7.5 6.38l.02 3.445c.001.208.17.376.377.375a.376.376 0 0 0 .373-.38l-.02-3.445A.376.376 0 0 0 7.873 6a.376.376 0 0 0-.373.38"/></g><defs><filter id="a" width="15.173" height="14.125" x=".755" y=".995" color-interpolation-filters="sRGB" filterUnits="userSpaceOnUse"><feFlood flood-opacity="0" result="BackgroundImageFix"/><feColorMatrix in="SourceAlpha" result="hardAlpha" values="0 0 0 0 0 0 0 0 0 0 0 0 0 0 0 0 0 0 127 0"/><feOffset dy="1"/><feGaussianBlur stdDeviation=".4"/><feColorMatrix values="0 0 0 0 0 0 0 0 0 0 0 0 0 0 0 0 0 0 0.5 0"/><feBlend in2="BackgroundImageFix" result="effect1_dropShadow_0_39"/><feBlend in="SourceGraphic" in2="effect1_dropShadow_0_39" result="shape"/></filter></defs></svg>
